X:4364
L:1/8
M:4/4
K:Ador
 faaa afdf | afdf g2 g2 | faaa afdf | ecdB A2 A2 | faaa afdf | afdf g2 g2 | faaa abaf | 
 edef g2 ag || fd d2 eB B2 | d2 ef g2 ag | fd d2 eB B2 | dedB A2 ag | fd d2 eB B2 | d2 ef g2 g2 | 
 fd d2 eB B2 | dedB A2 A2!D.C.! ||

